wp-content/plugins/wp-mail-smtp/assets/images/providers/mailgun.svg

<svg viewBox="0 0 164 48" fill="none" xmlns="http://www.w3.org/2000/svg">
<path d="M53.1476 39.7241V16.5517H58.1793L65.5614 31.2496L72.8441 16.5517H77.8759V39.7241H73.6386V23.7352L67.1834 36.4138H63.84L57.3848 23.7352V39.7241H53.1476Z" fill="black"/>
<path d="M86.2841 40.1214C84.8731 40.1214 83.7145 39.8938 82.8083 39.4428C81.9021 38.9917 81.2317 38.3876 80.789 37.6386C80.3462 36.8896 80.1269 36.0621 80.1269 35.1559C80.1269 33.6331 80.7228 32.3959 81.9145 31.4483C83.1062 30.5007 84.8938 30.0248 87.2772 30.0248H91.4483V29.6276C91.4483 28.5021 91.1297 27.6745 90.4883 27.1448C89.8469 26.6152 89.0524 26.3503 88.1048 26.3503C87.2441 26.3503 86.4952 26.5531 85.8538 26.9628C85.2124 27.3724 84.8152 27.9724 84.6621 28.7669H80.5241C80.6359 27.5752 81.0372 26.5365 81.7324 25.6552C82.4276 24.7738 83.3255 24.0952 84.4303 23.6193C85.5352 23.1434 86.7683 22.9076 88.1379 22.9076C90.4759 22.9076 92.3214 23.491 93.6662 24.6621C95.011 25.8331 95.6855 27.4883 95.6855 29.6276V39.7241H92.0772L91.68 37.0759C91.1959 37.9572 90.5172 38.6855 89.6441 39.2607C88.771 39.8359 87.6538 40.1214 86.2841 40.1214ZM87.2441 36.811C88.4565 36.811 89.4 36.4138 90.0745 35.6193C90.749 34.8248 91.171 33.8441 91.349 32.6731H87.7407C86.6152 32.6731 85.8083 32.8759 85.3241 33.2855C84.84 33.6952 84.5959 34.1959 84.5959 34.7917C84.5959 35.4331 84.84 35.9296 85.3241 36.2814C85.8083 36.6331 86.4496 36.811 87.2441 36.811Z" fill="black"/>
<path d="M100.353 20.7559C99.5793 20.7559 98.9462 20.5241 98.4496 20.0607C97.9531 19.5972 97.7048 19.0138 97.7048 18.3062C97.7048 17.5986 97.9531 17.0193 98.4496 16.5683C98.9462 16.1172 99.5793 15.8896 100.353 15.8896C101.127 15.8896 101.76 16.1172 102.257 16.5683C102.753 17.0193 103.001 17.5986 103.001 18.3062C103.001 19.0138 102.753 19.5972 102.257 20.0607C101.76 20.5241 101.127 20.7559 100.353 20.7559ZM98.2345 39.7241V23.3048H102.472V39.7241H98.2345Z" fill="black"/>
<path d="M105.252 39.7241V15.8896H109.49V39.7241H105.252Z" fill="black"/>
<path d="M119.123 34.8248C118.328 34.8248 117.588 34.7379 116.905 34.56L115.68 35.7848C116.057 35.9834 116.561 36.149 117.203 36.2814C117.844 36.4138 118.879 36.5462 120.314 36.6786C122.499 36.8772 124.088 37.3945 125.081 38.2345C126.074 39.0745 126.571 40.2331 126.571 41.7103C126.571 42.6828 126.306 43.6014 125.777 44.4745C125.247 45.3476 124.432 46.051 123.327 46.5931C122.222 47.1352 120.811 47.4041 119.09 47.4041C116.752 47.4041 114.865 46.9697 113.429 46.0965C111.993 45.2234 111.277 43.9159 111.277 42.1738C111.277 40.6965 111.993 39.4138 113.429 38.3338C112.986 38.1352 112.606 37.9241 112.287 37.7048C111.968 37.4855 111.687 37.2538 111.443 37.0096V36.2483L114.323 33.2028C113.044 32.0772 112.403 30.6331 112.403 28.8662C112.403 27.7614 112.672 26.76 113.214 25.8538C113.756 24.9476 114.521 24.2317 115.514 23.7021C116.508 23.1724 117.712 22.9076 119.123 22.9076C120.05 22.9076 120.91 23.04 121.705 23.3048H127.928V25.8869L125.114 26.0855C125.557 26.9255 125.777 27.8524 125.777 28.8662C125.777 29.971 125.512 30.9724 124.982 31.8786C124.452 32.7848 123.687 33.5007 122.681 34.0303C121.676 34.56 120.492 34.8248 119.123 34.8248ZM115.15 41.7434C115.15 42.5586 115.531 43.171 116.292 43.5807C117.054 43.9903 117.985 44.1931 119.09 44.1931C120.194 44.1931 121.01 43.9779 121.672 43.5476C122.334 43.1172 122.665 42.5379 122.665 41.8096C122.665 41.2138 122.45 40.7172 122.019 40.32C121.589 39.9228 120.732 39.6786 119.454 39.5917C118.548 39.5255 117.712 39.4262 116.938 39.2938C116.297 39.6455 115.841 40.0345 115.564 40.4524C115.287 40.8703 115.15 41.3007 115.15 41.7434ZM119.123 31.5807C119.983 31.5807 120.695 31.349 121.258 30.8855C121.821 30.4221 122.102 29.76 122.102 28.8993C122.102 28.0386 121.821 27.3765 121.258 26.9131C120.695 26.4496 119.983 26.2179 119.123 26.2179C118.217 26.2179 117.488 26.4496 116.938 26.9131C116.388 27.3765 116.11 28.0386 116.11 28.8993C116.11 29.76 116.388 30.4221 116.938 30.8855C117.488 31.349 118.217 31.5807 119.123 31.5807Z" fill="black"/>
<path d="M135.509 40.1214C133.457 40.1214 131.872 39.48 130.759 38.2014C129.646 36.9228 129.087 35.0441 129.087 32.5738V23.3048H133.291V32.1765C133.291 33.5876 133.577 34.6717 134.152 35.4207C134.727 36.1696 135.629 36.5462 136.866 36.5462C138.037 36.5462 139.001 36.1283 139.763 35.2883C140.524 34.4483 140.905 33.2814 140.905 31.7793V23.3048H145.142V39.7241H141.401L141.07 36.9434C140.561 37.9159 139.829 38.6855 138.869 39.2607C137.909 39.8359 136.788 40.1214 135.509 40.1214Z" fill="black"/>
<path d="M147.823 39.7241V23.3048H151.564L151.895 26.0855C152.404 25.1131 153.137 24.3434 154.097 23.7683C155.057 23.1931 156.186 22.9076 157.49 22.9076C159.521 22.9076 161.098 23.549 162.223 24.8276C163.349 26.1062 163.912 27.9848 163.912 30.4552V39.7241H159.674V30.8524C159.674 29.4414 159.389 28.3572 158.814 27.6083C158.239 26.8593 157.345 26.4828 156.132 26.4828C154.92 26.4828 153.964 26.9007 153.203 27.7407C152.441 28.5807 152.061 29.7476 152.061 31.2496V39.7241H147.823Z" fill="black"/>
<path d="M56.1104 11.6442C55.5145 11.6442 54.989 11.5407 54.5338 11.338C54.0786 11.1352 53.7186 10.8414 53.4579 10.4566C53.1973 10.0718 53.0607 9.6083 53.0524 9.0621H54.6166C54.6331 9.44279 54.7697 9.75727 55.0262 10.018C55.2828 10.2786 55.6428 10.4069 56.0979 10.4069C56.4911 10.4069 56.8055 10.3118 57.0373 10.1214C57.269 9.93106 57.3848 9.67865 57.3848 9.36417C57.3848 9.04968 57.2814 8.77244 57.0786 8.58623C56.8759 8.40003 56.6028 8.25106 56.2635 8.1352C55.9242 8.01934 55.56 7.8952 55.1752 7.76279C54.5504 7.54761 54.0704 7.27037 53.7435 6.92692C53.4166 6.58761 53.251 6.13658 53.251 5.56968C53.2428 5.08968 53.3586 4.68003 53.5945 4.33658C53.8304 3.99313 54.1531 3.7283 54.5628 3.53796C54.9724 3.34761 55.4442 3.25244 55.9779 3.25244C56.5117 3.25244 56.9959 3.34761 57.4097 3.5421C57.8235 3.73658 58.1462 4.00555 58.3821 4.35313C58.6179 4.70072 58.7421 5.11451 58.7586 5.59451H57.1697C57.1614 5.30899 57.0538 5.05658 56.8386 4.83727C56.6235 4.61796 56.3297 4.50623 55.9531 4.50623C55.6304 4.49796 55.3573 4.57658 55.1379 4.7421C54.9186 4.90761 54.8069 5.14761 54.8069 5.46623C54.8069 5.7352 54.8938 5.95037 55.0635 6.10761C55.2331 6.26486 55.4648 6.40141 55.7586 6.50899C56.0524 6.61658 56.3876 6.73244 56.7683 6.85658C57.1697 6.99727 57.5379 7.15865 57.869 7.34486C58.2 7.53106 58.469 7.7752 58.6676 8.08141C58.8704 8.38761 58.9697 8.77658 58.9697 9.25658C58.9697 9.68279 58.8621 10.0759 58.6469 10.44C58.4317 10.8042 58.109 11.0938 57.6869 11.3131C57.2607 11.5324 56.7393 11.6442 56.1228 11.6442H56.1104Z" fill="black"/>
<path d="M62.5738 11.5035V3.39313H64.0552V11.5035H62.5738Z" fill="black"/>
<path d="M67.949 11.5035V3.39313H69.4304L73.2414 9.10348V3.39313H74.7228V11.5035H73.2414L69.4304 5.80141V11.5035H67.949Z" fill="black"/>
<path d="M82.2952 11.6442C81.4759 11.6442 80.7724 11.4704 80.1848 11.1186C79.5973 10.7669 79.1462 10.2786 78.8276 9.64554C78.509 9.01658 78.3517 8.2883 78.3517 7.46072C78.3517 6.63313 78.509 5.90486 78.8276 5.27175C79.1421 4.63865 79.5973 4.14623 80.1848 3.79037C80.7724 3.43451 81.4759 3.25658 82.2952 3.25658C83.2676 3.25658 84.0662 3.49658 84.6869 3.98072C85.3076 4.46486 85.6966 5.13934 85.8497 6.01244H84.2152C84.1159 5.57382 83.9007 5.22623 83.5738 4.97382C83.2469 4.72141 82.8124 4.59727 82.2704 4.59727C81.5214 4.59727 80.9338 4.85382 80.5076 5.36279C80.0814 5.87175 79.8704 6.57106 79.8704 7.46072C79.8704 8.35037 80.0814 9.04554 80.5076 9.55037C80.9338 10.0552 81.5214 10.3076 82.2704 10.3076C82.8124 10.3076 83.2469 10.1876 83.5738 9.95589C83.9007 9.72003 84.1159 9.39313 84.2152 8.9752H85.8497C85.6966 9.81106 85.3076 10.4607 84.6869 10.9324C84.0662 11.4042 83.2676 11.64 82.2952 11.64V11.6442Z" fill="black"/>
<path d="M89.4786 11.5035V3.39313H90.96V6.76554H94.5973V3.39313H96.0786V11.5035H94.5973V7.96968H90.96V11.5035H89.4786Z" fill="black"/>
<path d="M21.5172 24.3848C23.1009 24.3848 24.3848 23.1009 24.3848 21.5172C24.3848 19.9335 23.1009 18.6496 21.5172 18.6496C19.9334 18.6496 18.6496 19.9335 18.6496 21.5172C18.6496 23.1009 19.9334 24.3848 21.5172 24.3848Z" fill="#EB5454"/>
<path d="M35.1434 23.6689C33.9558 23.6689 32.9917 22.7048 32.9917 21.5172C32.9917 15.1779 27.8523 10.0427 21.5172 10.0427C15.182 10.0427 10.0427 15.182 10.0427 21.5172C10.0427 27.8524 15.182 32.9917 21.5172 32.9917C25.8951 32.9917 29.702 30.542 31.6344 26.9338C34.1337 28.5558 37.5144 28.2703 39.7075 26.0772C40.9696 24.8152 41.5985 23.1641 41.5985 21.5131C41.5985 10.4234 32.6068 1.4317 21.5172 1.4317C10.4275 1.4317 1.43579 10.4276 1.43579 21.5172C1.43579 32.6069 10.4275 41.5986 21.5172 41.5986C27.062 41.5986 32.0854 39.3517 35.7186 35.7145L32.6772 32.6731C29.822 35.5283 25.8785 37.2952 21.5213 37.2952C12.8068 37.2952 5.74338 30.2317 5.74338 21.5172C5.74338 12.8027 12.8027 5.73929 21.5172 5.73929C30.2317 5.73929 37.2951 12.8027 37.2951 21.5172C37.2951 22.7048 36.331 23.6689 35.1434 23.6689ZM21.5172 28.6883C17.5572 28.6883 14.3461 25.4772 14.3461 21.5172C14.3461 17.5572 17.5572 14.3462 21.5172 14.3462C25.4772 14.3462 28.6882 17.5572 28.6882 21.5172C28.6882 25.4772 25.4772 28.6883 21.5172 28.6883Z" fill="#EB5454"/>
</svg>

<svg viewBox="0 0 164 48" fill="none" xmlns="http://www.w3.org/2000/svg"><path d="M53.148 39.724V16.552h5.031l7.382 14.698 7.283-14.698h5.032v23.172h-4.237V23.735l-6.456 12.679H63.84l-6.455-12.679v15.99h-4.237Zm33.136.397c-1.41 0-2.57-.227-3.476-.678-.906-.451-1.576-1.055-2.019-1.804a4.786 4.786 0 0 1-.662-2.483c0-1.523.596-2.76 1.788-3.708 1.191-.947 2.979-1.423 5.362-1.423h4.171v-.397c0-1.126-.318-1.954-.96-2.483-.641-.53-1.436-.795-2.383-.795-.86 0-1.61.203-2.251.613-.642.41-1.039 1.01-1.192 1.804h-4.138c.112-1.192.513-2.23 1.208-3.112.696-.881 1.594-1.56 2.698-2.036 1.105-.476 2.338-.711 3.708-.711 2.338 0 4.183.583 5.528 1.754 1.345 1.171 2.02 2.826 2.02 4.966v10.096h-3.609l-.397-2.648a6.118 6.118 0 0 1-2.036 2.185c-.873.575-1.99.86-3.36.86Zm.96-3.31c1.213 0 2.156-.397 2.83-1.192.675-.794 1.097-1.775 1.275-2.946h-3.608c-1.126 0-1.933.203-2.417.612-.484.41-.728.91-.728 1.507 0 .641.244 1.138.728 1.49.484.351 1.126.529 1.92.529Zm13.109-16.055c-.774 0-1.407-.232-1.903-.695-.497-.464-.745-1.047-.745-1.755 0-.707.248-1.287.745-1.738.496-.45 1.13-.678 1.903-.678.774 0 1.407.227 1.904.678.496.451.744 1.03.744 1.738s-.248 1.291-.744 1.755c-.497.463-1.13.695-1.904.695Zm-2.118 18.968v-16.42h4.237v16.42h-4.237Zm7.017 0V15.89h4.238v23.834h-4.238Zm13.871-4.899a8.785 8.785 0 0 1-2.218-.265l-1.225 1.225c.377.198.881.364 1.523.496.641.133 1.676.265 3.111.398 2.185.198 3.774.715 4.767 1.555.993.84 1.49 2 1.49 3.476 0 .973-.265 1.891-.794 2.764-.53.874-1.345 1.577-2.45 2.12-1.105.541-2.516.81-4.237.81-2.338 0-4.225-.434-5.661-1.308-1.436-.873-2.152-2.18-2.152-3.922 0-1.477.716-2.76 2.152-3.84a7.26 7.26 0 0 1-1.142-.63c-.319-.218-.6-.45-.844-.694v-.762l2.88-3.045c-1.279-1.126-1.92-2.57-1.92-4.337 0-1.105.269-2.106.811-3.012.542-.906 1.307-1.622 2.3-2.152.994-.53 2.198-.794 3.609-.794a8.12 8.12 0 0 1 2.582.397h6.223v2.582l-2.814.198c.443.84.663 1.767.663 2.781 0 1.105-.265 2.106-.795 3.013-.53.906-1.295 1.622-2.301 2.151-1.005.53-2.189.795-3.558.795Zm-3.973 6.918c0 .816.381 1.428 1.142 1.838.762.41 1.693.612 2.798.612 1.104 0 1.92-.215 2.582-.645.662-.43.993-1.01.993-1.738 0-.596-.215-1.093-.646-1.49-.43-.397-1.287-.641-2.565-.728a26.31 26.31 0 0 1-2.516-.298c-.641.352-1.097.74-1.374 1.158-.277.418-.414.849-.414 1.291Zm3.973-10.162c.86 0 1.572-.232 2.135-.695.563-.464.844-1.126.844-1.987 0-.86-.281-1.523-.844-1.986-.563-.463-1.275-.695-2.135-.695-.906 0-1.635.232-2.185.695-.55.463-.828 1.126-.828 1.986 0 .861.278 1.523.828 1.986.55.464 1.279.696 2.185.696Zm16.386 8.54c-2.052 0-3.637-.641-4.75-1.92-1.113-1.278-1.672-3.157-1.672-5.627v-9.27h4.204v8.872c0 1.412.286 2.496.861 3.245.575.749 1.477 1.125 2.714 1.125 1.171 0 2.135-.418 2.897-1.258.761-.84 1.142-2.007 1.142-3.509v-8.474h4.237v16.42h-3.741l-.331-2.782a5.781 5.781 0 0 1-2.201 2.318c-.96.575-2.081.86-3.36.86Zm12.314-.397v-16.42h3.741l.331 2.782a5.783 5.783 0 0 1 2.202-2.318c.96-.575 2.089-.86 3.393-.86 2.031 0 3.608.641 4.733 1.92 1.126 1.278 1.689 3.157 1.689 5.627v9.27h-4.238v-8.873c0-1.41-.285-2.495-.86-3.244-.575-.749-1.469-1.125-2.682-1.125-1.212 0-2.168.418-2.929 1.258-.762.84-1.142 2.007-1.142 3.509v8.474h-4.238ZM56.11 11.644c-.596 0-1.121-.103-1.576-.306a2.49 2.49 0 0 1-1.076-.881c-.26-.385-.397-.849-.406-1.395h1.565c.016.38.153.695.41.956.256.26.616.389 1.07.389.394 0 .709-.095.94-.286a.931.931 0 0 0 .348-.757c0-.314-.104-.592-.306-.778-.203-.186-.476-.335-.816-.45l-1.088-.373c-.625-.215-1.105-.493-1.431-.836-.327-.34-.493-.79-.493-1.357-.008-.48.108-.89.343-1.233a2.34 2.34 0 0 1 .969-.799c.41-.19.881-.286 1.415-.286s1.018.096 1.432.29c.414.195.736.464.972.811.236.348.36.762.377 1.242h-1.59a1.094 1.094 0 0 0-.33-.758c-.215-.219-.51-.33-.886-.33-.323-.009-.596.07-.815.235-.22.166-.331.406-.331.724 0 .27.087.484.256.642.17.157.402.293.696.401.293.108.629.223 1.01.348a6.9 6.9 0 0 1 1.1.488c.331.186.6.43.799.736.202.307.302.696.302 1.176 0 .426-.108.819-.323 1.183-.215.364-.538.654-.96.873-.426.22-.948.331-1.564.331h-.013Zm6.464-.14v-8.11h1.481v8.11h-1.481Zm5.375 0v-8.11h1.481l3.811 5.71v-5.71h1.482v8.11H73.24L69.431 5.8v5.703h-1.482Zm14.346.14c-.82 0-1.523-.174-2.11-.525a3.516 3.516 0 0 1-1.357-1.473c-.319-.63-.476-1.358-.476-2.185 0-.828.157-1.556.476-2.19a3.535 3.535 0 0 1 1.357-1.48c.587-.356 1.29-.534 2.11-.534.973 0 1.771.24 2.392.724.62.484 1.01 1.158 1.163 2.031h-1.635a1.758 1.758 0 0 0-.641-1.038c-.327-.253-.762-.377-1.304-.377-.749 0-1.336.257-1.762.766-.427.509-.638 1.208-.638 2.098 0 .89.211 1.585.638 2.09.426.504 1.013.757 1.762.757.542 0 .977-.12 1.304-.352a1.63 1.63 0 0 0 .641-.98h1.635c-.153.835-.542 1.485-1.163 1.956-.62.472-1.42.708-2.392.708v.004Zm7.184-.14v-8.11h1.481v3.372h3.637V3.393h1.482v8.11h-1.482V7.97H90.96v3.534h-1.481Z" fill="#000"/><path d="M21.517 24.385a2.868 2.868 0 1 0 0-5.735 2.868 2.868 0 0 0 0 5.735Z" fill="#EB5454"/><path d="M35.143 23.669a2.153 2.153 0 0 1-2.151-2.152c0-6.34-5.14-11.474-11.475-11.474s-11.474 5.139-11.474 11.474 5.139 11.475 11.474 11.475c4.378 0 8.185-2.45 10.117-6.058a6.459 6.459 0 0 0 9.965-5.42c0-11.09-8.992-20.082-20.082-20.082S1.436 10.428 1.436 21.517c0 11.09 8.992 20.082 20.081 20.082a20.01 20.01 0 0 0 14.202-5.884l-3.042-3.042a15.727 15.727 0 0 1-11.156 4.622c-8.714 0-15.778-7.063-15.778-15.778 0-8.714 7.06-15.778 15.774-15.778 8.715 0 15.778 7.064 15.778 15.778a2.153 2.153 0 0 1-2.152 2.152Zm-13.626 5.02a7.172 7.172 0 1 1 .001-14.344 7.172 7.172 0 0 1 0 14.343Z" fill="#EB5454"/></svg>
